U-commodities/img/partners/green-kvsaas.svg

<svg width="160" height="40" viewBox="0 0 160 40" fill="none" xmlns="http://www.w3.org/2000/svg">
<path fill-rule="evenodd" clip-rule="evenodd" d="M16.0218 0.198247L15.9641 0.142578H15.9129L7.78666 0.192062L19.4979 11.5643L13.7403 17.1092L10.3053 20.4122L7.85075 22.775V22.806L10.3053 25.1255L13.7403 28.4285L25.5259 39.7417H33.7995L16.1948 22.7503L23.6305 15.5737L27.0832 18.9153L27.1024 18.8968L27.7176 19.4968L36.9717 28.4471L42.8036 34.0944L42.8196 34.0789L48.6804 39.7479L62.5808 39.8469V39.7974C65.1075 39.7085 67.5034 38.6905 69.2778 36.9521C70.1155 36.1399 70.8045 35.1967 71.3158 34.1625C71.9218 32.9554 72.262 31.6486 72.3245 30.3234C72.4318 32.7372 73.4563 35.0352 75.2123 36.7727C75.2362 36.7984 75.258 36.8241 75.2793 36.8493C75.3094 36.8848 75.3388 36.9195 75.3725 36.9521C77.1444 38.6949 79.5413 39.7155 82.0695 39.8036V39.8592H89.0229L94.9125 34.1624H82.6912C82.0991 34.1749 81.5106 34.0718 80.9608 33.8594C80.4134 33.65 79.9177 33.3317 79.5061 32.9254C79.0949 32.542 78.7774 32.075 78.5768 31.5584C78.2245 30.7809 78.1283 29.9176 78.3014 29.0855C78.4745 28.2535 78.9085 27.4929 79.5445 26.9069C79.95 26.4971 80.4387 26.1724 80.9802 25.9531C81.5216 25.7339 82.1041 25.6248 82.6912 25.6327H94.9253L89.0422 19.936H82.6912C81.3331 19.9124 79.9844 20.1583 78.7288 20.6584C77.4732 21.1584 76.3374 21.9021 75.3917 22.8431C75.3636 22.8776 75.3337 22.9107 75.302 22.9421C73.4995 24.6816 72.4408 27.006 72.3256 29.4544C72.3068 29.0328 72.2598 28.6112 72.1843 28.1921C71.8186 26.1633 70.802 24.2966 69.2778 22.8555C68.33 21.9176 67.1936 21.1765 65.9384 20.6777C64.6832 20.1788 63.3356 19.9328 61.9784 19.9545H53.1793C52.582 19.9702 51.9879 19.8643 51.4358 19.6437C50.8837 19.4231 50.386 19.0928 49.9749 18.6742C49.578 18.282 49.2626 17.8201 49.0457 17.3134C48.831 16.7813 48.7244 16.2143 48.7316 15.6433C48.7189 15.0891 48.8224 14.5382 49.0361 14.0237C49.2498 13.5092 49.5691 13.0418 49.9749 12.6496C50.3834 12.238 50.8798 11.9172 51.4297 11.7094C51.9806 11.5013 52.5686 11.4004 53.16 11.4125V11.3692H66.426L72.3156 5.70952H72.0528H52.1411V5.79611C49.7679 5.97837 47.5467 6.99527 45.899 8.65378C44.9343 9.56466 44.1707 10.6546 43.6541 11.858C43.1375 13.0613 42.8788 14.3532 42.8934 15.6557C42.8651 17.7455 43.5397 19.7878 44.816 21.4762C45.1425 21.912 45.5001 22.3254 45.8862 22.7132C46.8987 23.6977 48.1181 24.4612 49.4622 24.9524C50.6521 25.3949 51.917 25.6193 53.1921 25.6142H61.9912C62.5787 25.6074 63.1613 25.7177 63.7027 25.938C64.2441 26.1583 64.7327 26.4839 65.1378 26.8946C65.7697 27.4845 66.2007 28.246 66.3735 29.0779C66.5464 29.9098 66.4529 30.7728 66.1055 31.5522C65.8974 32.0699 65.5761 32.5383 65.1635 32.9254C64.7478 33.3164 64.2524 33.6198 63.7087 33.8161C63.1588 34.0279 62.5704 34.131 61.9784 34.1192V34.1625L42.8677 34.0761V34.0758V34.0325V33.581V0.142578H36.9141V20.2514L35.8823 19.3545L32.3703 15.9711L31.2744 14.9257L31.2937 14.901L28.8327 12.5258L28.0957 11.8207L27.8069 11.5428L33.7995 5.75894H25.5259L23.6616 7.55433L21.9178 5.87647L16.0218 0.198247ZM42.8229 34.0759L42.8229 34.0758L42.8228 34.0759H42.8229ZM138.908 5.70952H157.782H158.044L152.161 11.3568H138.895V11.3939C138.303 11.3814 137.715 11.4845 137.165 11.697C136.613 11.9039 136.114 12.2247 135.704 12.6372C135.3 13.0292 134.982 13.4959 134.77 14.0092C134.557 14.5226 134.454 15.0721 134.467 15.6248C134.459 16.1958 134.566 16.7628 134.781 17.2948C134.994 17.802 135.307 18.2643 135.704 18.6556C136.116 19.073 136.614 19.4025 137.166 19.623C137.717 19.8435 138.311 19.9501 138.908 19.936H147.707C149.066 19.9163 150.415 20.1658 151.671 20.669C152.926 21.1722 154.062 21.9185 155.007 22.8617C156.53 24.3018 157.547 26.1674 157.912 28.1951C158.278 30.2229 157.974 32.3102 157.045 34.1625C156.528 35.1735 155.839 36.0935 155.007 36.8841C153.235 38.6269 150.838 39.6475 148.31 39.7355V39.7788H135.268L132.358 36.9706L129.41 34.1254H147.707C148.299 34.1372 148.888 34.0341 149.438 33.8223C149.98 33.6208 150.475 33.3158 150.892 32.9254C151.301 32.5436 151.62 32.0816 151.828 31.5708C152.176 30.792 152.269 29.9292 152.095 29.098C151.921 28.2667 151.488 27.5066 150.854 26.9193C150.451 26.5074 149.964 26.1804 149.423 25.959C148.883 25.7376 148.301 25.6265 147.714 25.6328H138.914C137.64 25.6366 136.376 25.4144 135.185 24.9771C133.84 24.4836 132.621 23.718 131.609 22.7318C131.217 22.3344 130.855 21.9107 130.526 21.4638C129.847 20.5674 129.339 19.571 129.016 18.5207C129.142 18.9668 129.236 19.4231 129.295 19.8864H129.41V20.9627V21.1235V34.1624V39.7726H123.508L123.54 21.1173C123.542 20.5813 123.435 20.0502 123.224 19.5544C123.013 19.0587 122.702 18.6081 122.31 18.2288C121.899 17.8163 121.401 17.4954 120.848 17.2886C120.301 17.0761 119.714 16.973 119.124 16.9855V16.9422H104.167V11.2763H119.124H119.221H120.182V11.3691C122.554 11.5503 124.775 12.5648 126.424 14.2206C127.615 15.3668 128.482 16.7774 128.956 18.3176C128.711 17.452 128.59 16.5521 128.603 15.6433C128.588 14.3408 128.847 13.049 129.364 11.8456C129.88 10.6422 130.644 9.55228 131.609 8.64141C133.257 6.98929 135.475 5.97711 137.844 5.79611V5.70952H138.806H138.908ZM100.847 20.9627V19.8864H100.738C100.467 17.7405 99.4553 15.7449 97.8669 14.2206C96.2179 12.5648 93.997 11.5503 91.6249 11.3691V11.2763H90.6636H90.5931H75.6288V16.9422H90.5931V16.9855C91.1831 16.9725 91.7697 17.0756 92.317 17.2886C92.8767 17.4948 93.3823 17.818 93.7974 18.2349C94.1898 18.6143 94.5005 19.0648 94.7116 19.5606C94.9228 20.0563 95.0303 20.5875 95.0279 21.1235L94.9958 39.7788H100.847V21.1235C100.868 21.0867 100.861 21.0525 100.854 21.0174C100.851 20.9996 100.847 20.9815 100.847 20.9627ZM111.235 25.6327H123.47L117.586 19.9359H111.235C109.877 19.9131 108.529 20.1593 107.274 20.6593C106.018 21.1593 104.882 21.9026 103.936 22.843C103.908 22.8775 103.878 22.9106 103.846 22.942C101.957 24.7742 100.891 27.2505 100.879 29.8353C100.867 32.4201 101.91 34.9056 103.782 36.754C103.828 36.818 103.879 36.878 103.936 36.9334C105.708 38.6762 108.105 39.6968 110.633 39.7849V39.8406H117.586L123.457 34.1624H111.235C110.643 34.1748 110.055 34.0717 109.505 33.8593C108.958 33.6499 108.462 33.3316 108.05 32.9253C107.64 32.5409 107.323 32.0742 107.121 31.5583C106.886 31.0331 106.766 30.4666 106.769 29.8944C106.774 29.3366 106.895 28.7853 107.122 28.2726C107.35 27.7598 107.681 27.2956 108.095 26.9068C108.499 26.4966 108.986 26.1715 109.527 25.9522C110.067 25.7329 110.649 25.6241 111.235 25.6327ZM1.93555 39.7664L1.96759 5.75894L7.83793 5.7775V39.7664H1.93555Z" fill="#8BB539"/>
</svg>

<svg width="160" height="40" fill="none" xmlns="http://www.w3.org/2000/svg"><path fill-rule="evenodd" clip-rule="evenodd" d="M16.022.198l-.058-.055h-.051l-8.126.05 11.71 11.371-5.757 5.545-3.435 3.303-2.454 2.363v.031l2.454 2.32 3.435 3.302 11.786 11.314H33.8L16.195 22.75l7.436-7.176 3.452 3.341.02-.018.615.6 9.254 8.95 5.832 5.647.016-.015 5.86 5.669 13.9.099v-.05c2.528-.088 4.923-1.106 6.698-2.845a10.158 10.158 0 002.038-2.79 9.556 9.556 0 001.008-3.839 9.684 9.684 0 002.888 6.45c.024.025.046.051.067.076.03.036.06.07.094.103 1.771 1.743 4.168 2.764 6.697 2.852v.055h6.953l5.89-5.697H82.69a4.538 4.538 0 01-1.73-.303 4.212 4.212 0 01-1.455-.934 3.704 3.704 0 01-.93-1.367 4.006 4.006 0 01-.275-2.473 4.1 4.1 0 011.243-2.178c.406-.41.895-.735 1.436-.954a4.404 4.404 0 011.711-.32h12.234l-5.883-5.697h-6.35a10.234 10.234 0 00-3.963.722 9.945 9.945 0 00-3.337 2.185 1.254 1.254 0 01-.09.1c-1.803 1.739-2.861 4.063-2.976 6.511a9.508 9.508 0 00-.142-1.262 9.723 9.723 0 00-2.906-5.337 9.99 9.99 0 00-3.34-2.177 10.282 10.282 0 00-3.96-.724H53.18a4.391 4.391 0 01-1.743-.31 4.263 4.263 0 01-1.461-.97 4.285 4.285 0 01-.93-1.36 4.316 4.316 0 01-.313-1.67 3.982 3.982 0 01.304-1.62c.214-.515.533-.982.939-1.374a4.08 4.08 0 011.455-.94 4.63 4.63 0 011.73-.298v-.043h13.266l5.89-5.66H52.14v.087a9.862 9.862 0 00-6.24 2.858 9.64 9.64 0 00-2.245 3.204 9.356 9.356 0 00-.76 3.798 9.434 9.434 0 001.922 5.82c.326.436.684.85 1.07 1.237a10.1 10.1 0 003.576 2.24c1.19.442 2.455.666 3.73.661h8.8a4.408 4.408 0 011.71.324 4.28 4.28 0 011.436.957 4.141 4.141 0 011.236 2.183 4.055 4.055 0 01-.268 2.474c-.209.518-.53.986-.942 1.373a4.208 4.208 0 01-1.455.891 4.564 4.564 0 01-1.73.303v.044l-19.111-.087V.143h-5.954V20.25l-1.032-.896-3.512-3.384-1.096-1.045.02-.025-2.461-2.375-.737-.705-.29-.278L33.8 5.759h-8.274l-1.864 1.795-1.744-1.678L16.022.198zm26.8 33.878zM138.909 5.71h19.136l-5.883 5.647h-13.266v.037a4.536 4.536 0 00-1.73.303 4.076 4.076 0 00-1.461.94 4.088 4.088 0 00-.934 1.372 3.97 3.97 0 00-.303 1.616 4.294 4.294 0 00.314 1.67c.213.507.526.97.923 1.36.412.418.91.747 1.462.968.551.22 1.145.327 1.742.313h8.799c1.359-.02 2.708.23 3.964.733a9.976 9.976 0 013.336 2.193 9.715 9.715 0 012.905 5.333 9.52 9.52 0 01-.867 5.968 10.1 10.1 0 01-2.038 2.721c-1.772 1.743-4.169 2.764-6.697 2.852v.043h-13.042l-2.91-2.808-2.948-2.846h18.297a4.568 4.568 0 001.731-.303 4.34 4.34 0 001.454-.897 3.83 3.83 0 00.936-1.354 4.029 4.029 0 00.267-2.473 4.124 4.124 0 00-1.241-2.179 4.255 4.255 0 00-1.431-.96 4.384 4.384 0 00-1.709-.326h-8.8a10.731 10.731 0 01-3.729-.656 10.11 10.11 0 01-3.576-2.245 11.594 11.594 0 01-1.083-1.268 9.497 9.497 0 01-1.51-2.943c.126.446.22.902.279 1.365h.115v19.887h-5.902l.032-18.656a3.95 3.95 0 00-.316-1.563 4.058 4.058 0 00-.914-1.325 4.078 4.078 0 00-1.462-.94 4.502 4.502 0 00-1.724-.304v-.043h-14.957v-5.666h16.015v.093a9.87 9.87 0 016.242 2.852 9.616 9.616 0 012.532 4.097 9.327 9.327 0 01-.353-2.675 9.343 9.343 0 01.761-3.797 9.627 9.627 0 012.245-3.205 9.867 9.867 0 016.235-2.845V5.71h1.064zm-38.061 15.253v-1.077h-.109a9.509 9.509 0 00-2.871-5.665 9.87 9.87 0 00-6.242-2.852v-.093H75.629v5.666h14.964v.043c.59-.012 1.177.09 1.724.304.56.206 1.065.529 1.48.946.393.38.704.83.915 1.326a3.94 3.94 0 01.316 1.563l-.032 18.655h5.851V21.123c.021-.036.014-.07.007-.106-.003-.017-.007-.035-.007-.054zm10.388 4.67h12.235l-5.884-5.697h-6.351a10.243 10.243 0 00-3.961.723 9.954 9.954 0 00-3.338 2.184 1.184 1.184 0 01-.09.099c-1.889 1.832-2.955 4.308-2.967 6.893-.012 2.585 1.031 5.07 2.903 6.919.046.064.097.124.154.18 1.772 1.742 4.169 2.763 6.697 2.85v.057h6.953l5.871-5.679h-12.222a4.54 4.54 0 01-1.73-.303 4.22 4.22 0 01-1.455-.934 3.748 3.748 0 01-.929-1.367 4.02 4.02 0 01-.352-1.664 4.093 4.093 0 01.353-1.621c.228-.513.559-.977.973-1.366.404-.41.891-.735 1.432-.955a4.373 4.373 0 011.708-.32zM1.935 39.766L1.969 5.76l5.87.018v33.99H1.936z" fill="#8BB539"/></svg>
